static/assets/img/icons/theme/devices/display-1.svg

<svg height="24" viewBox="0 0 24 24" width="24" xmlns="http://www.w3.org/2000/svg"><g fill="none" fill-rule="evenodd"><path d="m0 0h24v24h-24z" opacity="0"/><g fill="#000"><path d="m11 20v-3c0-.5522847.4477153-1 1-1s1 .4477153 1 1v3h2.5c.2761424 0 .5.2238576.5.5s-.2238576.5-.5.5h-7c-.27614237 0-.5-.2238576-.5-.5s.22385763-.5.5-.5z" opacity=".3"/><path d="m3 5h18c.5522847 0 1 .44771525 1 1v10c0 .5522847-.4477153 1-1 1h-18c-.55228475 0-1-.4477153-1-1v-10c0-.55228475.44771525-1 1-1zm1.5 3c-.27614237 0-.5.22385763-.5.5s.22385763.5.5.5h9c.2761424 0 .5-.22385763.5-.5s-.2238576-.5-.5-.5zm0 2c-.27614237 0-.5.2238576-.5.5s.22385763.5.5.5h3c.27614237 0 .5-.2238576.5-.5s-.22385763-.5-.5-.5z"/></g></g></svg>

<svg width="24px" height="24px" viewBox="0 0 24 24" version="1.1" xmlns="http://www.w3.org/2000/svg" xmlns:xlink="http://www.w3.org/1999/xlink">
    <title>Icon For Display#1</title>
    <g stroke="none" stroke-width="1" fill="none" fill-rule="evenodd">
        <rect opacity="0" x="0" y="0" width="24" height="24"></rect>
        <path d="M11,20 L11,17 C11,16.4477153 11.4477153,16 12,16 C12.5522847,16 13,16.4477153 13,17 L13,20 L15.5,20 C15.7761424,20 16,20.2238576 16,20.5 C16,20.7761424 15.7761424,21 15.5,21 L8.5,21 C8.22385763,21 8,20.7761424 8,20.5 C8,20.2238576 8.22385763,20 8.5,20 L11,20 Z" fill="#000000" opacity="0.3"></path>
        <path d="M3,5 L21,5 C21.5522847,5 22,5.44771525 22,6 L22,16 C22,16.5522847 21.5522847,17 21,17 L3,17 C2.44771525,17 2,16.5522847 2,16 L2,6 C2,5.44771525 2.44771525,5 3,5 Z M4.5,8 C4.22385763,8 4,8.22385763 4,8.5 C4,8.77614237 4.22385763,9 4.5,9 L13.5,9 C13.7761424,9 14,8.77614237 14,8.5 C14,8.22385763 13.7761424,8 13.5,8 L4.5,8 Z M4.5,10 C4.22385763,10 4,10.2238576 4,10.5 C4,10.7761424 4.22385763,11 4.5,11 L7.5,11 C7.77614237,11 8,10.7761424 8,10.5 C8,10.2238576 7.77614237,10 7.5,10 L4.5,10 Z" fill="#000000"></path>
    </g>
</svg>
